X:4612
T:New Tatter Jack
O:england
M:C
L:1/8
S:Old US Army fife tune, c. 1850.  Originally played as a march.
K:G
|:E E AAAz|BcBc edc|BGG dGG|BcB AGE|E AAAz|BcBc az|ge dcBcd|e>2 Az:|


